X:1
T:Title
%%score { ( 1 3 ) | ( 2 4 ) }
L:1/8
Q:1/4=108
M:4/4
K:C
V:1 treble nm="Grand Piano"
V:3 treble 
V:2 bass 
V:4 bass 
V:1
 [EG]3 [FA] [EG]2 [CE]2 | [Ec]2 [Fc]2 [Ec]4 | [EG]3 [FA] [EG]2 E2 | E2 D2 D4 | %4
w: C.~Harold~Lowden * * *||||
 [EG]3 [FA] [EG]2 [CE]2 | [Ec]2 [Ec]2 [Ec]4 | [Dc]3 [^Fc] [FB]2 [FA]2 | z4 d4 | %8
w: ||||
 [Ee]3 d c2 [DB]2[Q:1/4=106][Q:1/4=105][Q:1/4=103][Q:1/4=102][Q:1/4=100][Q:1/4=98][Q:1/4=97][Q:1/4=95][Q:1/4=94][Q:1/4=92][Q:1/4=91][Q:1/4=89][Q:1/4=87][Q:1/4=86][Q:1/4=84][Q:1/4=83] | %9
w: |
 [Ec]2 [Ec]6 |] %10
w: |
V:2
 [C,C]3 [C,C] [C,C]2 [C,G,]2 | [C,G,]2 [C,A,]2 [C,G,]4 | [C,C]3 [C,C] [C,C]2 [E,G,C]2 | %3
 [G,C]2 [G,B,]2 [G,B,]4 | [C,C]3 [C,C] [C,C]2 [C,G,]2 | [A,,A,]2 [A,,A,]2 [A,,A,]4 | %6
 [D,^F,]3 [D,A,] [D,D]2 [D,D]2 | z4 G2 z2 | [C,G,]3 [F,A,F] [G,E]2 [G,,G,]2 | [C,G,]2 [C,G,]6 |] %10
V:3
 x8 | x8 | x8 | x8 | x8 | x8 | x8 | B2 c2 z2 F2 | x8 | x8 |] %10
V:4
 x8 | x8 | x8 | x8 | x8 | x8 | x8 | [G,DG]2 [G,A,G]2 [G,B,]4 | x8 | x8 |] %10

